lib/flags/l/DO.svg

<svg xmlns="http://www.w3.org/2000/svg" fill="none" viewBox="0 0 32 24"><mask id="DO_svg__a" width="32" height="24" x="0" y="0" mask-type="alpha" maskUnits="userSpaceOnUse"><path fill="#fff" d="M0 0H32V24H0z"/></mask><g mask="url(#DO_svg__a)"><path fill="#C51918" fill-rule="evenodd" d="M0 0V24H32V0H0Z" clip-rule="evenodd"/><mask id="DO_svg__b" width="32" height="24" x="0" y="0" mask-type="alpha" maskUnits="userSpaceOnUse"><path fill="#fff" fill-rule="evenodd" d="M0 0V24H32V0H0Z" clip-rule="evenodd"/></mask><g mask="url(#DO_svg__b)"><path fill="#4257BF" d="M0 0H14V10H0z"/><path fill="#4257BF" d="M18 14H32V24H18z"/><path fill="#F7FCFF" fill-rule="evenodd" d="M13 0H19V9H32V15H19V24H13V15H0V9H13V0Z" clip-rule="evenodd"/><path fill="#5AB92D" fill-rule="evenodd" d="M13.8654 10.5247C13.8277 10.3496 13.7851 10.1333 13.7851 10.1333 13.6904 10.3638 13.6605 10.5735 13.6986 10.761 13.6583 10.8201 13.6218 10.8754 13.5892 10.9271 13.4873 10.7836 13.3602 10.5151 13.3602 10.5151 13.3646 10.5933 13.3626 10.673 13.3607 10.7504 13.3561 10.9324 13.3518 11.1016 13.4319 11.2075L13.431 11.2096C13.415 11.2447 13.3998 11.2797 13.3855 11.3147 13.2751 11.1973 13.092 10.9856 13.092 10.9856 13.1063 11.2395 13.1722 11.4395 13.2918 11.5822 13.2702 11.6566 13.2523 11.7306 13.2381 11.8042 13.1456 11.7021 13.0563 11.6012 13.0563 11.6012 13.0694 11.8328 13.1057 11.9858 13.2001 12.1144 13.1982 12.151 13.1972 12.1874 13.1972 12.2237 13.0994 12.1161 13 12.0037 13 12.0037 13.0138 12.2482 13.1031 12.409 13.2208 12.5429 13.2325 12.6203 13.2485 12.6969 13.2686 12.7726L13.2799 12.8145C13.1439 12.7433 12.9945 12.6622 12.9945 12.6622 13.0852 12.8734 13.2132 12.9926 13.3579 13.0772 13.3894 13.1752 13.4227 13.2699 13.4577 13.361 13.2977 13.312 13.0577 13.2316 13.0577 13.2316 13.202 13.4519 13.3737 13.5447 13.5571 13.6005 13.5948 13.6845 13.6339 13.7647 13.6744 13.8408 13.5223 13.7928 13.3421 13.7325 13.3421 13.7325 13.4822 13.9464 13.6482 14.0401 13.8256 14.0965 13.9429 14.2744 14.0686 14.4203 14.1998 14.5291 14.0489 14.592 13.8557 14.6681 13.8557 14.6681 14.0699 14.7326 14.24 14.714 14.3945 14.6609L14.4051 14.6664C14.4685 14.6987 14.5393 14.7293 14.6192 14.7591 14.4948 14.8097 14.3754 14.8568 14.3754 14.8568 14.5855 14.9201 14.7533 14.9034 14.9054 14.8526L14.9128 14.8547C14.9842 14.8755 15.057 14.8954 15.1528 14.9207 15.0894 14.9039 15.3233 14.9655 15.3708 14.9784 15.5229 15.0196 15.6095 15.0486 15.6511 15.0736 15.655 15.0759 15.6578 15.0779 15.6596 15.0791 15.6614 15.0803 15.6622 15.0808 15.6618 15.0803L15.7781 14.9901C15.7647 14.9703 15.7459 14.9545 15.7217 14.94 15.6646 14.9057 15.5721 14.8747 15.4063 14.8297 15.3592 14.8169 15.1326 14.7573 15.1839 14.7709 15.0908 14.7462 15.0199 14.7269 14.9506 14.7067L14.8968 14.6908C14.9095 14.5306 14.8852 14.3634 14.7727 14.1745 14.7727 14.1745 14.7341 14.4679 14.7074 14.6291 14.6152 14.5963 14.5358 14.5631 14.4672 14.528 14.4473 14.5178 14.4275 14.5067 14.4077 14.4945 14.3939 14.3305 14.342 14.1662 14.1947 13.9954 14.1947 13.9954 14.2027 14.1776 14.2069 14.3349 14.1091 14.2393 14.0141 14.1196 13.9239 13.9787L14.0091 14.0258C14.0095 13.8248 13.9722 13.6254 13.7919 13.4163 13.7919 13.4163 13.8005 13.6134 13.8047 13.7747 13.7516 13.6757 13.7007 13.569 13.6524 13.4552 13.6972 13.2944 13.706 13.1203 13.6249 12.9064 13.6249 12.9064 13.5841 13.0357 13.5409 13.1671 13.5283 13.1311 13.5159 13.0946 13.5037 13.0575 13.5975 12.8895 13.6573 12.703 13.6078 12.4432 13.6078 12.4432 13.503 12.6446 13.4231 12.7903 13.4176 12.7705 13.4123 12.7507 13.4069 12.7307 13.3897 12.6658 13.3757 12.6002 13.3652 12.5339 13.4997 12.4118 13.6088 12.2601 13.6488 12.0138 13.6488 12.0138 13.468 12.1794 13.342 12.2894 13.3402 12.2337 13.3408 12.1775 13.3438 12.1209 13.489 12.0254 13.6147 11.8962 13.6932 11.671 13.6932 11.671 13.5128 11.7859 13.3723 11.8715 13.3819 11.8168 13.3937 11.7617 13.4077 11.7063 13.5806 11.6064 13.7331 11.4744 13.8234 11.2156 13.8234 11.2156 13.6417 11.3314 13.501 11.417 13.5191 11.3704 13.5389 11.3236 13.5603 11.2766 13.5855 11.2212 13.6214 11.155 13.6679 11.0781 13.8225 11.0223 13.9674 10.9297 14.094 10.7436 14.094 10.7436 13.9655 10.7841 13.8335 10.824 13.9075 10.7164 13.9944 10.596 14.0942 10.4628L13.9818 10.367C13.9409 10.4216 13.9021 10.4742 13.8654 10.5247zM17.9127 10.5247C17.9504 10.3496 17.993 10.1333 17.993 10.1333 18.0877 10.3638 18.1175 10.5735 18.0795 10.761 18.1198 10.8201 18.1563 10.8754 18.1889 10.9271 18.2908 10.7836 18.4179 10.5151 18.4179 10.5151 18.4134 10.5933 18.4154 10.673 18.4174 10.7504 18.422 10.9324 18.4262 11.1016 18.3462 11.2075L18.3471 11.2096C18.3631 11.2447 18.3782 11.2797 18.3925 11.3147 18.5029 11.1973 18.6861 10.9856 18.6861 10.9856 18.6718 11.2395 18.6059 11.4395 18.4862 11.5822 18.5079 11.6566 18.5258 11.7306 18.5399 11.8042 18.6325 11.7021 18.7218 11.6012 18.7218 11.6012 18.7087 11.8328 18.6723 11.9858 18.578 12.1144 18.5799 12.151 18.5808 12.1874 18.5809 12.2237 18.6787 12.1161 18.7781 12.0037 18.7781 12.0037 18.7643 12.2482 18.675 12.409 18.5573 12.5429 18.5456 12.6203 18.5296 12.6969 18.5095 12.7726L18.4982 12.8145C18.6341 12.7433 18.7836 12.6622 18.7836 12.6622 18.6929 12.8734 18.5649 12.9926 18.4202 13.0772 18.3887 13.1752 18.3553 13.2699 18.3204 13.361 18.4803 13.312 18.7204 13.2316 18.7204 13.2316 18.5761 13.4519 18.4044 13.5447 18.221 13.6005 18.1833 13.6845 18.1441 13.7647 18.1036 13.8408 18.2558 13.7928 18.436 13.7325 18.436 13.7325 18.2959 13.9464 18.1299 14.0401 17.9525 14.0965 17.8352 14.2744 17.7094 14.4203 17.5783 14.5291 17.7292 14.592 17.9224 14.6681 17.9224 14.6681 17.7082 14.7326 17.538 14.714 17.3836 14.6609L17.373 14.6664C17.3096 14.6987 17.2388 14.7293 17.1589 14.7591 17.2833 14.8097 17.4027 14.8568 17.4027 14.8568 17.1926 14.9201 17.0248 14.9034 16.8727 14.8526L16.8653 14.8547C16.7938 14.8755 16.7211 14.8954 16.6253 14.9207 16.6887 14.9039 16.4547 14.9655 16.4072 14.9784 16.2551 15.0196 16.1685 15.0486 16.127 15.0736 16.1231 15.0759 16.1202 15.0779 16.1184 15.0791 16.1166 15.0803 16.1159 15.0808 16.1163 15.0803L15.9999 14.9901C16.0134 14.9703 16.0322 14.9545 16.0564 14.94 16.1134 14.9057 16.206 14.8747 16.3718 14.8297 16.4189 14.8169 16.6455 14.7573 16.5942 14.7709 16.6873 14.7462 16.7582 14.7269 16.8275 14.7067L16.8813 14.6908C16.8686 14.5306 16.8928 14.3634 17.0054 14.1745 17.0054 14.1745 17.044 14.4679 17.0706 14.6291 17.1629 14.5963 17.2423 14.5631 17.3109 14.528 17.3308 14.5178 17.3506 14.5067 17.3704 14.4945 17.3842 14.3305 17.4361 14.1662 17.5834 13.9954 17.5834 13.9954 17.5754 14.1776 17.5711 14.3349 17.669 14.2393 17.7639 14.1196 17.8541 13.9787L17.769 14.0258C17.7685 13.8248 17.8059 13.6254 17.9861 13.4163 17.9861 13.4163 17.9775 13.6134 17.9734 13.7747 18.0265 13.6757 18.0774 13.569 18.1257 13.4552 18.0809 13.2944 18.0721 13.1203 18.1532 12.9064 18.1532 12.9064 18.194 13.0357 18.2371 13.1671 18.2498 13.1311 18.2622 13.0946 18.2744 13.0575 18.1805 12.8895 18.1208 12.703 18.1702 12.4432 18.1702 12.4432 18.2751 12.6446 18.355 12.7903 18.3604 12.7705 18.3658 12.7507 18.3711 12.7307 18.3884 12.6658 18.4024 12.6002 18.4129 12.5339 18.2783 12.4118 18.1693 12.2601 18.1293 12.0138 18.1293 12.0138 18.3101 12.1794 18.4361 12.2894 18.4379 12.2337 18.4373 12.1775 18.4343 12.1209 18.2891 12.0254 18.1634 11.8962 18.0848 11.671 18.0848 11.671 18.2653 11.7859 18.4058 11.8715 18.3962 11.8168 18.3844 11.7617 18.3703 11.7063 18.1975 11.6064 18.0449 11.4744 17.9546 11.2156 17.9546 11.2156 18.1364 11.3314 18.2771 11.417 18.2589 11.3704 18.2392 11.3236 18.2178 11.2766 18.1925 11.2212 18.1566 11.155 18.1101 11.0781 17.9556 11.0223 17.8106 10.9297 17.684 10.7436 17.684 10.7436 17.8126 10.7841 17.9446 10.824 17.8706 10.7164 17.7836 10.596 17.6839 10.4628L17.7963 10.367C17.8372 10.4216 17.8759 10.4742 17.9127 10.5247z" clip-rule="evenodd"/><path fill="#003994" d="M13.2515 9.31579C13.6511 9.03478 14.3838 8.79217 14.7608 8.79217C14.7627 8.79217 14.7667 8.79127 14.7773 8.78688C14.8086 8.77393 15.0151 8.64604 15.028 8.63864C15.2945 8.48614 15.5732 8.40588 15.9529 8.40588V9.07255C15.6803 9.07255 15.5022 9.12384 15.3235 9.22608C15.3546 9.20829 15.0882 9.37334 15.0033 9.40844C14.9243 9.44114 14.8449 9.45884 14.7608 9.45884C14.5083 9.45884 13.8947 9.662 13.5954 9.87241C13.4879 9.94804 13.4978 9.92495 13.5011 9.97004C13.5132 10.134 13.5008 10.2342 13.4 10.3622C13.3868 10.3788 13.366 10.4705 13.3642 10.6313L12.7393 10.6234C12.7422 10.3609 12.782 10.1538 12.8765 9.99814C12.8628 9.72897 12.9574 9.52255 13.2515 9.31579Z"/><path fill="#EBCA5E" d="M13.5856 9.56537L13.5166 9.45417C13.8374 9.22775 14.1366 9.11352 14.4142 9.11352C14.5061 9.11352 14.611 9.08905 14.733 9.04195C14.8147 9.01039 14.8984 8.97139 15.0107 8.91426C15.4179 8.70729 15.4295 8.70203 15.537 8.70203H15.9056V8.83536H15.537C15.4592 8.83536 15.434 8.84678 15.0645 9.03462C14.9488 9.09345 14.8618 9.13398 14.7755 9.16732C14.6411 9.21925 14.5228 9.24685 14.4142 9.24685C14.1637 9.24685 13.8874 9.35234 13.5856 9.56537Z"/><path fill="#003994" d="M18.4984 9.31579C18.0987 9.03478 17.366 8.79217 16.9891 8.79217C16.9872 8.79217 16.9831 8.79127 16.9725 8.78688C16.9412 8.77393 16.7348 8.64604 16.7218 8.63864C16.4554 8.48614 16.1767 8.40588 15.7969 8.40588V9.07255C16.0696 9.07255 16.2477 9.12384 16.4263 9.22608C16.3952 9.20829 16.6617 9.37334 16.7466 9.40844C16.8256 9.44114 16.905 9.45884 16.9891 9.45884C17.2416 9.45884 17.8552 9.662 18.1544 9.87241C18.262 9.94804 18.2521 9.92495 18.2488 9.97004C18.2367 10.134 18.2491 10.2342 18.3499 10.3622C18.363 10.3788 18.3839 10.4705 18.3857 10.6313L19.0106 10.6234C19.0077 10.3609 18.9679 10.1538 18.8733 9.99814C18.8871 9.72897 18.7925 9.52255 18.4984 9.31579Z"/><path fill="#EBCA5E" d="M18.1143 9.56537L18.1832 9.45417C17.8624 9.22775 17.5633 9.11352 17.2856 9.11352C17.1937 9.11352 17.0888 9.08905 16.9669 9.04195C16.8851 9.01039 16.8015 8.97139 16.6891 8.91426C16.282 8.70729 16.2704 8.70203 16.1628 8.70203H15.7942V8.83536H16.1628C16.2406 8.83536 16.2658 8.84678 16.6353 9.03462C16.751 9.09345 16.838 9.13398 16.9243 9.16732C17.0587 9.21925 17.1771 9.24685 17.2856 9.24685C17.5362 9.24685 17.8124 9.35234 18.1143 9.56537Z"/><path fill="#003994" d="M13.8221 10.0193L14.1482 10.3739V11.8467H14.4774V11.9404L14.9593 12.1721C14.9593 12.1721 15.0321 11.1978 14.8055 10.9411C14.5789 10.6844 14.9593 10.6212 14.9593 10.6212L15.5378 11.2004V10.0193H13.8221Z"/><path fill="#D62818" d="M17.7378 10.0193L17.4116 10.3739V11.8467H17.0824V11.9404L16.6005 12.1721C16.6005 12.1721 16.5277 11.1978 16.7543 10.9411C16.9809 10.6844 16.6005 10.6212 16.6005 10.6212L16.022 11.2004V10.0193H17.7378Z"/><path fill="#FFC300" d="M14.8769 10.5967L14.8278 10.6571L15.7895 11.5461L15.8412 11.5435L16.6366 10.6545L16.5823 10.5993L15.8116 11.4607L14.8769 10.5967Z"/><path fill="#FFC300" d="M14.7404 10.97L14.6778 11.0304L15.9053 11.9194L15.9713 11.9168L16.9866 11.0278L16.9173 10.9726L15.9336 11.834L14.7404 10.97Z"/><path fill="#D62818" d="M14.1766 12.422H14.5988L14.8869 12.51C14.8869 12.51 14.9795 13.171 15.4423 13.171L15.5182 14.0173L15.1595 13.8235C15.1595 13.8235 14.9263 13.9265 14.8869 13.9265C14.8474 13.9265 14.515 14.1129 14.515 13.9265C14.515 13.7401 14.1766 13.4384 14.1766 13.4384V12.422Z"/><path fill="#003994" d="M17.5182 12.422H17.096L16.808 12.51C16.808 12.51 16.7153 13.171 16.2525 13.171L16.1766 14.0173L16.5353 13.8235C16.5353 13.8235 16.7685 13.9265 16.808 13.9265C16.8474 13.9265 17.1798 14.1129 17.1798 13.9265C17.1798 13.7401 17.5182 13.4384 17.5182 13.4384V12.422Z"/><path fill="#D62818" d="M16.6137 12.502 17.1137 12.5022C17.1136 12.8762 16.9816 13.1793 16.7216 13.3843L16.4243 12.9555C16.5518 12.855 16.6136 12.7129 16.6137 12.502zM15.304 11.4734V12.1747H15.8853C15.8853 12.1747 15.8307 12.7006 15.8307 13.0323 15.8307 13.364 15.8853 13.7945 15.8853 13.7945 15.8853 13.7945 16.0276 13.7235 16.0276 13.2749 16.0276 12.8262 16.0276 12.1261 16.0276 12.1261L16.4869 12.1747 16.4383 11.5422H16.2446C16.2446 11.5422 16.5425 11.9364 16.2446 11.9364 15.9468 11.9364 15.6045 12.0133 15.5396 12.0133 15.4746 12.0133 15.304 11.4734 15.304 11.4734z"/><path fill="#003994" d="M15.8095 12.3209C15.8095 12.3209 15.4829 12.5133 15.4829 12.8262 15.4829 13.1391 15.6462 13.496 15.6462 13.496 15.6462 13.496 15.5687 12.7912 15.6891 12.6038 15.8095 12.4163 15.8095 12.3209 15.8095 12.3209zM15.278 12.5526C15.278 12.5526 15.2596 12.7791 15.3937 12.7791 15.5279 12.7791 15.278 12.5526 15.278 12.5526z"/><path fill="#373737" d="M16.4276 11.944L16.479 12.1224L15.6244 12.4022L15.4329 11.6065L15.6024 11.5601L15.7483 12.1664L16.4276 11.944Z"/><path fill="#D62818" fill-rule="evenodd" d="M14.0359 15.4086L13.9609 15.4723C13.9358 15.4387 13.9143 15.4049 13.8964 15.3711C13.8212 15.3451 13.7501 15.3105 13.6915 15.2693C13.6103 15.2122 13.5266 15.2122 13.4206 15.2747L13.2997 15.0413C13.484 14.9327 13.667 14.9327 13.8291 15.0467C13.8311 15.0481 13.8331 15.0494 13.8352 15.0508C13.8577 14.919 13.944 14.8018 14.0926 14.7172C14.3475 14.572 15.4627 14.4192 15.8015 14.4192V14.8459C15.5265 14.8459 14.4591 14.9922 14.281 15.0936C14.2758 15.0966 14.2709 15.0993 14.2665 15.1018C14.2429 15.1149 14.2304 15.1219 14.228 15.1315C14.226 15.1395 14.2314 15.1494 14.2437 15.1664C14.2533 15.1655 14.2598 15.1638 14.2624 15.161L14.4398 15.3489C14.3662 15.4278 14.2032 15.4411 14.0359 15.4086ZM12.8413 15.4161C12.8413 15.4161 13.2109 15.7409 13.4778 15.6622C13.7446 15.5834 13.8273 15.4948 13.8273 15.4948C13.8273 15.4948 13.5609 15.4593 13.2781 15.4161C12.9953 15.373 12.8413 15.4161 12.8413 15.4161Z" clip-rule="evenodd"/><path fill="#EBCA5E" fill-rule="evenodd" d="M14.0651 15.1794L14.11 15.1154C13.978 15.0098 14.0124 14.9507 14.2652 14.894C14.2873 14.889 14.3096 14.8842 14.3321 14.8793L14.3321 14.8794C14.5651 14.8297 14.8195 14.7876 15.0733 14.757C15.3526 14.7234 15.632 14.7037 15.8806 14.7037C15.632 14.7037 15.3531 14.7233 15.0733 14.757C14.8181 14.7877 14.5631 14.83 14.3321 14.8793L14.3175 14.8009C14.5528 14.7508 14.8096 14.7082 15.0659 14.6774C15.3475 14.6435 15.6294 14.6237 15.8806 14.6237C15.6293 14.6237 15.348 14.6434 15.0659 14.6774C14.783 14.7114 14.5004 14.7595 14.2498 14.8157C13.9449 14.8841 13.8659 15.0201 14.0651 15.1794Z" clip-rule="evenodd"/><path fill="#D62818" fill-rule="evenodd" d="M17.464 15.4086L17.539 15.4723C17.5641 15.4387 17.5855 15.4049 17.6034 15.3711C17.6787 15.3451 17.7498 15.3105 17.8083 15.2693C17.8895 15.2122 17.9733 15.2122 18.0793 15.2747L18.2002 15.0413C18.0159 14.9327 17.8329 14.9327 17.6707 15.0467C17.6688 15.0481 17.6667 15.0494 17.6647 15.0508C17.6422 14.919 17.5559 14.8018 17.4073 14.7172C17.1524 14.572 16.0372 14.4192 15.6984 14.4192V14.8459C15.9734 14.8459 17.0408 14.9922 17.2189 15.0936C17.2241 15.0966 17.229 15.0993 17.2334 15.1018C17.2569 15.1149 17.2695 15.1219 17.2719 15.1315C17.2738 15.1395 17.2685 15.1494 17.2562 15.1664C17.2466 15.1655 17.2401 15.1638 17.2375 15.161L17.0601 15.3489C17.1336 15.4278 17.2967 15.4411 17.464 15.4086ZM18.6586 15.4161C18.6586 15.4161 18.2889 15.7409 18.0221 15.6622C17.7553 15.5834 17.6726 15.4948 17.6726 15.4948C17.6726 15.4948 17.939 15.4593 18.2218 15.4161C18.5046 15.373 18.6586 15.4161 18.6586 15.4161Z" clip-rule="evenodd"/><path fill="#EBCA5E" fill-rule="evenodd" d="M17.4348 15.1794L17.3898 15.1154C17.5218 15.0098 17.4875 14.9507 17.2346 14.894C17.2126 14.889 17.1903 14.8842 17.1677 14.8793L17.1677 14.8794C16.9348 14.8297 16.6803 14.7876 16.4265 14.757C16.1473 14.7234 15.8678 14.7037 15.6193 14.7037C15.8679 14.7037 16.1468 14.7233 16.4265 14.757C16.6818 14.7877 16.9368 14.83 17.1677 14.8793L17.1824 14.8009C16.9471 14.7508 16.6903 14.7082 16.434 14.6774C16.1524 14.6435 15.8705 14.6237 15.6193 14.6237C15.8705 14.6237 16.1519 14.6434 16.434 14.6774C16.7169 14.7114 16.9994 14.7595 17.2501 14.8157C17.555 14.8841 17.634 15.0201 17.4348 15.1794Z" clip-rule="evenodd"/><path fill="#D62818" d="M15.3655 15.5106L15.1711 15.1685C15.3481 15.0541 15.5754 14.9995 15.8513 14.9995C16.1285 14.9995 16.3531 15.0546 16.5239 15.1711L16.3218 15.508C16.2189 15.4378 16.0626 15.3995 15.8513 15.3995C15.6388 15.3995 15.4774 15.4383 15.3655 15.5106Z"/></g></g></svg>

<svg xmlns="http://www.w3.org/2000/svg" fill="none" viewBox="0 0 32 24"><mask id="DO_svg__a" width="32" height="24" x="0" y="0" maskUnits="userSpaceOnUse"><path fill="#fff" d="M0 0h32v24H0z"/></mask><g mask="url(#DO_svg__a)"><path fill="#C51918" fill-rule="evenodd" d="M0 0v24h32V0H0z" clip-rule="evenodd"/><mask id="DO_svg__b" width="32" height="24" x="0" y="0" maskUnits="userSpaceOnUse"><path fill="#fff" fill-rule="evenodd" d="M0 0v24h32V0H0z" clip-rule="evenodd"/></mask><g mask="url(#DO_svg__b)"><path fill="#4257BF" d="M0 0h14v10H0zm18 14h14v10H18z"/><path fill="#F7FCFF" fill-rule="evenodd" d="M13 0h6v9h13v6H19v9h-6v-9H0V9h13V0z" clip-rule="evenodd"/><path fill="#5AB92D" fill-rule="evenodd" d="M13.865 10.525c-.037-.175-.08-.392-.08-.392-.095.23-.124.44-.086.628l-.11.166a3.477 3.477 0 01-.229-.412c.005.078.003.158 0 .236-.004.181-.008.35.072.457l-.001.002-.045.105c-.11-.118-.294-.33-.294-.33.014.255.08.455.2.597a2.49 2.49 0 00-.054.222l-.182-.203c.013.232.05.385.144.513a2.111 2.111 0 00-.003.11l-.197-.22a.84.84 0 00.22.539c.012.077.028.154.049.23l.01.042-.284-.153c.09.211.218.33.363.415.031.098.065.193.1.284-.16-.049-.4-.13-.4-.13a.85.85 0 00.5.37c.037.084.076.164.116.24-.152-.048-.332-.108-.332-.108.14.213.306.307.484.364.117.177.243.323.374.432-.151.063-.344.14-.344.14a.835.835 0 00.539-.008l.01.005c.064.033.134.063.214.093l-.244.098c.21.063.378.046.53-.004l.008.002.24.066.218.057c.152.042.239.07.28.096l.009.005.002.001.116-.09a.173.173 0 00-.056-.05 1.367 1.367 0 00-.316-.11 42.254 42.254 0 00-.222-.06 9.366 9.366 0 01-.233-.063l-.054-.016a.834.834 0 00-.124-.517s-.039.294-.066.455a2.003 2.003 0 01-.3-.134.835.835 0 00-.212-.5s.008.183.012.34a2.027 2.027 0 01-.283-.356l.085.047a.86.86 0 00-.217-.61l.013.359a3.902 3.902 0 01-.153-.32.836.836 0 00-.027-.549s-.04.13-.084.261a6.365 6.365 0 01-.037-.11.851.851 0 00.104-.614s-.105.202-.185.347l-.016-.06a1.972 1.972 0 01-.042-.196.843.843 0 00.284-.52s-.181.166-.307.275a1.974 1.974 0 01.002-.168.838.838 0 00.35-.45s-.181.115-.322.2c.01-.054.022-.11.036-.165a.857.857 0 00.415-.49s-.181.115-.322.201a1.987 1.987 0 01.167-.339.834.834 0 00.426-.334l-.26.08c.074-.107.16-.228.26-.361l-.112-.096-.117.158zm4.048 0c.037-.175.08-.392.08-.392.095.23.125.44.087.628l.109.166c.102-.143.229-.412.229-.412a2.841 2.841 0 000 .236c.004.181.008.35-.072.457l.001.002.045.105c.11-.118.294-.33.294-.33-.014.255-.08.455-.2.597.022.075.04.149.054.222.093-.102.182-.203.182-.203-.013.232-.05.385-.144.513.002.037.003.073.003.11l.197-.22a.84.84 0 01-.22.539 2.14 2.14 0 01-.049.23l-.01.042.285-.153a.836.836 0 01-.364.415 5.489 5.489 0 01-.1.284c.16-.049.4-.13.4-.13a.85.85 0 01-.499.37 3.981 3.981 0 01-.117.24c.152-.048.332-.108.332-.108a.845.845 0 01-.483.364 1.964 1.964 0 01-.375.432c.151.063.344.14.344.14a.835.835 0 01-.538-.008l-.011.005a2.027 2.027 0 01-.214.093l.244.098a.834.834 0 01-.53-.004l-.008.002a9.76 9.76 0 01-.24.066l-.218.057a1.339 1.339 0 00-.29.102L16 14.99a.175.175 0 01.056-.05c.057-.034.15-.065.316-.11l.222-.06c.093-.024.164-.043.233-.063l.054-.016a.833.833 0 01.124-.517s.039.294.066.455a1.998 1.998 0 00.3-.134.835.835 0 01.212-.5s-.008.183-.012.34c.098-.096.193-.215.283-.356l-.085.047c0-.201.037-.4.217-.61 0 0-.009.197-.013.359.053-.1.104-.206.153-.32a.836.836 0 01.027-.549l.084.261.037-.11a.851.851 0 01-.104-.614s.105.202.185.347l.016-.06c.017-.064.031-.13.042-.196a.843.843 0 01-.284-.52s.181.166.307.275a1.974 1.974 0 00-.002-.168.839.839 0 01-.35-.45s.181.115.322.2a2.239 2.239 0 00-.036-.165.858.858 0 01-.415-.49s.181.115.322.201a2.011 2.011 0 00-.167-.339.835.835 0 01-.426-.334l.26.08a11.249 11.249 0 00-.26-.361l.112-.096.117.158z" clip-rule="evenodd"/><path fill="#003994" d="M13.252 9.316c.4-.281 1.132-.524 1.509-.524.002 0 .006 0 .016-.005.032-.013.238-.141.251-.148.266-.153.545-.233.925-.233v.667c-.273 0-.45.05-.63.153a3.58 3.58 0 01-.32.182.625.625 0 01-.242.05c-.253 0-.866.204-1.166.414-.107.076-.097.053-.094.098.012.164 0 .264-.101.392-.013.017-.034.108-.036.27l-.625-.009c.003-.262.043-.47.137-.625-.013-.27.081-.475.376-.682z"/><path fill="#EBCA5E" d="M13.586 9.565l-.07-.11c.321-.227.62-.342.898-.342a.904.904 0 00.319-.071c.082-.032.165-.07.278-.128.407-.207.419-.212.526-.212h.369v.133h-.369c-.078 0-.103.012-.473.2a3.01 3.01 0 01-.289.132c-.134.052-.252.08-.36.08-.251 0-.528.105-.83.318z"/><path fill="#003994" d="M18.498 9.316c-.4-.281-1.132-.524-1.509-.524-.002 0-.006 0-.017-.005-.03-.013-.237-.141-.25-.148a1.755 1.755 0 00-.925-.233v.667c.273 0 .45.05.63.153a3.58 3.58 0 00.32.182c.079.033.158.05.242.05.253 0 .866.204 1.165.414.108.076.098.053.095.098-.012.164 0 .264.1.392.014.017.035.108.037.27l.625-.009c-.003-.262-.043-.47-.138-.625.014-.27-.08-.475-.375-.682z"/><path fill="#EBCA5E" d="M18.114 9.565l.07-.11c-.322-.227-.62-.342-.898-.342a.903.903 0 01-.32-.071 2.956 2.956 0 01-.277-.128c-.407-.207-.419-.212-.526-.212h-.369v.133h.369c.078 0 .103.012.472.2.116.058.203.099.29.132.134.052.252.08.36.08.251 0 .527.105.83.318z"/><path fill="#003994" d="M13.822 10.02l.326.354v1.473h.33v.093l.481.232s.073-.974-.153-1.23c-.227-.258.153-.32.153-.32l.579.578v-1.18h-1.716z"/><path fill="#D62818" d="M17.738 10.02l-.326.354v1.473h-.33v.093l-.482.232s-.072-.974.154-1.23c.227-.258-.154-.32-.154-.32l-.578.578v-1.18h1.716z"/><path fill="#FFC300" d="M14.877 10.597l-.05.06.963.89.051-.004.796-.889-.055-.055-.77.862-.935-.864z"/><path fill="#FFC300" d="M14.74 10.97l-.062.06 1.227.89.066-.003 1.016-.89-.07-.054-.983.861-1.194-.864z"/><path fill="#D62818" d="M14.177 12.422h.422l.288.088s.092.66.555.66l.076.847-.359-.194s-.233.103-.272.103c-.04 0-.372.187-.372 0 0-.186-.338-.488-.338-.488v-1.016z"/><path fill="#003994" d="M17.518 12.422h-.422l-.288.088s-.093.66-.555.66l-.076.847.358-.194s.233.103.273.103c.04 0 .372.187.372 0 0-.186.338-.488.338-.488v-1.016z"/><path fill="#D62818" d="M16.614 12.502h.5c0 .374-.132.677-.392.882l-.298-.429c.128-.1.19-.242.19-.453zm-1.31-1.029v.702h.581s-.054.525-.054.857c0 .332.054.762.054.762s.143-.07.143-.52v-1.148l.459.049-.049-.633h-.193s.297.394 0 .394c-.298 0-.64.077-.705.077-.065 0-.236-.54-.236-.54z"/><path fill="#003994" d="M15.81 12.32s-.327.193-.327.506.163.67.163.67-.077-.705.043-.892c.12-.188.12-.283.12-.283zm-.532.233s-.018.226.116.226-.116-.226-.116-.226z"/><path fill="#373737" d="M16.428 11.944l.051.178-.855.28-.191-.795.17-.047.145.606.68-.222z"/><path fill="#D62818" fill-rule="evenodd" d="M14.036 15.409l-.075.063a.778.778 0 01-.065-.1.834.834 0 01-.205-.103c-.08-.057-.164-.057-.27.006l-.121-.234c.184-.108.367-.108.53.006l.005.004a.482.482 0 01.258-.334c.255-.145 1.37-.298 1.709-.298v.427c-.275 0-1.343.146-1.521.248l-.014.008c-.024.013-.037.02-.039.03-.002.008.003.017.016.034.01 0 .016-.002.018-.005l.178.188c-.074.079-.237.092-.404.06zm-1.195.007s.37.325.637.246c.267-.079.35-.167.35-.167s-.267-.036-.55-.079c-.283-.043-.437 0-.437 0z" clip-rule="evenodd"/><path fill="#EBCA5E" fill-rule="evenodd" d="M14.065 15.18l.045-.065c-.132-.105-.098-.164.155-.221l.067-.015-.014-.078a8.37 8.37 0 00-.068.015c-.305.068-.384.204-.185.363z" clip-rule="evenodd"/><path fill="#D62818" fill-rule="evenodd" d="M17.464 15.409l.075.063a.777.777 0 00.064-.1.83.83 0 00.205-.103c.082-.057.165-.057.271.006l.121-.234c-.184-.108-.367-.108-.53.006l-.005.004a.482.482 0 00-.258-.334c-.255-.145-1.37-.298-1.709-.298v.427c.275 0 1.343.146 1.52.248l.015.008c.024.013.037.02.039.03.002.008-.003.017-.016.034-.01 0-.016-.002-.018-.005l-.178.188c.074.079.237.092.404.06zm1.195.007s-.37.325-.637.246c-.267-.079-.35-.167-.35-.167s.267-.036.55-.079c.283-.043.437 0 .437 0z" clip-rule="evenodd"/><path fill="#EBCA5E" fill-rule="evenodd" d="M17.435 15.18l-.045-.065c.132-.105.098-.164-.155-.221a8.494 8.494 0 00-.808-.137c.255.03.51.073.74.122l.015-.078a8.375 8.375 0 01.068.015c.305.068.384.204.185.363z" clip-rule="evenodd"/><path fill="#D62818" d="M15.366 15.51l-.195-.341c.177-.115.404-.17.68-.17.277 0 .502.056.673.172l-.202.337c-.103-.07-.26-.108-.47-.108-.213 0-.375.038-.486.11z"/></g></g></svg>
